static/img/icons/logoblack.svg

<svg fill="none" viewBox="0 0 139.21 45.62" xmlns="http://www.w3.org/2000/svg"><path d="m34.7189 17.958c-.7478.7531-1.6693 1.2247-2.6346 1.4152 1.3451 3.6463.4726 7.8189-2.2889 10.6-1.906 1.9196-4.4708 2.9356-7.0675 2.9356-1.1689 0-2.3436-.2088-3.468-.6313-.1872.9774-.6564 1.911-1.408 2.668-2.0017 2.0159-5.2469 2.0159-7.2486 0-2.00163-2.0159-2.00163-5.2846 0-7.3005.7472-.7524 1.668-1.2238 2.6324-1.4146-1.3712-3.6578-.5042-7.8553 2.2697-10.6491 2.7715-2.7915 6.9346-3.6656 10.5641-2.2897.1915-.9651.658-1.8858 1.4007-2.6341 2.0017-2.01585 5.2471-2.01585 7.2487 0 2.0016 2.016 2.0016 5.2846 0 7.3005zm-12.0685-17.958c-12.5094 0-22.6504 10.2134-22.6504 22.8123 0 12.5988 10.141 22.8122 22.6504 22.8122 12.5095 0 22.6505-10.2134 22.6505-22.8122 0-12.5989-10.141-22.8123-22.6505-22.8123zm2.6762 25.4724c-1.4644 1.475-3.8387 1.475-5.3032 0-1.4643-1.4748-1.4643-3.866 0-5.3409 1.4645-1.4748 3.8388-1.4748 5.3032 0 1.4644 1.4749 1.4644 3.8661 0 5.3409zm3.3447-13.6052c-.771.7763-1.1244 1.8876-.9456 2.9726.0626.3551.0248.7204-.132 1.0614-.2023.4399-.5623.7556-.9809.9108-.4196.1555-.898.1496-1.3353-.0545-2.4554-1.1451-5.3908-.6188-7.3047 1.3089-1.9137 1.9273-2.4361 4.8833-1.2999 7.3558.2054.447.2077.9358.0467 1.3624-.1565.414-.4665.7695-.8971.9703-.2371.1105-.4865.163-.7319.163-.1165 0-.2312-.0159-.3443-.0389-1.1206-.1545-2.1684.1961-2.9285.962-.6394.6438-.9915 1.5-.9915 2.4108 0 .9105.3521 1.7665.9915 2.4107 1.3199 1.3288 3.4674 1.3288 4.7871 0 .7708-.7768 1.1243-1.8879.9453-2.9724-.0097-.0596-.0075-.1174 0-.1741-.0204-.287.0283-.5831.1569-.8627.2014-.4383.5597-.7532.9764-.9089.4206-.1572.9008-.1523 1.3399.0525 2.4555 1.1455 5.3907.6185 7.3047-1.3087 1.9137-1.9275 2.4361-4.8836 1.2997-7.3559-.2006-.4363-.2077-.9128-.058-1.3322.1525-.427.4674-.7949.9086-1.0006.3097-.1446.6399-.1879.9554-.1466.0489-.0058.0985-.0076.1495-.0003 1.0673.1531 2.1146-.1981 2.8749-.9642 1.3198-1.3292 1.3198-3.492 0-4.8212-1.3197-1.3294-3.4672-1.3294-4.7869 0zm60.4309 17.8738c.1267-.0106.2219-.016.2852-.016v3.352c-.7396.1489-1.3206.2234-1.7434.2234-1.4158 0-2.5198-.3618-3.3121-1.0854-.7925-.7235-1.1886-1.8515-1.1886-3.3838v-18.8023h3.9936v18.1319c0 .5321.1057.9311.317 1.1971.2113.2661.6339.399 1.2678.399.1268 0 .2537-.0052.3805-.0159zm2.1949 3.3679h4.0255v-16.5997h-4.0255zm17.2189-16.5997h3.962v16.5997h-3.296l-.286-2.1708c-.401.8088-1.025 1.4419-1.87 1.8995-.845.4574-1.796.6863-2.852.6863-1.754 0-3.144-.5427-4.168-1.628-1.0252-1.0855-1.5377-2.522-1.5377-4.3096v-11.0771h3.9617v10.1833c0 2.1068.951 3.1603 2.853 3.1603.803 0 1.479-.2767 2.029-.83.803-.7449 1.204-1.9898 1.204-3.7349zm30.69 5.3949v11.2048h-3.931v-10.311c0-1.0854-.184-1.8941-.554-2.4262-.37-.532-1.03-.798-1.981-.798-1.036 0-1.833.4523-2.393 1.3568-.56.9043-.84 1.9419-.84 3.1123v9.0661h-3.93v-10.311c0-1.0854-.185-1.8941-.555-2.4262-.37-.532-1.03-.798-1.981-.798-1.036 0-1.839.4523-2.409 1.3568-.571.9043-.856 1.9419-.856 3.1123v9.0661h-3.93v-16.5997h3.296l.317 2.2026c1.057-1.7451 2.62-2.6176 4.691-2.6176 2.261 0 3.835.9044 4.723 2.7133 1.035-1.8089 2.694-2.7133 4.976-2.7133 1.712 0 3.032.5266 3.962 1.5801s1.395 2.4634 1.395 4.2298zm-48.0357-7.6934h4.2473v-4.118h-4.2473zm-28.6137 3.5435c.9931 1.1065 1.4897 2.5324 1.4897 4.2775v11.0772h-3.9621v-10.2472c0-1.0215-.206-1.793-.618-2.3143-.4121-.5214-1.1146-.7821-2.1078-.7821-1.0989 0-1.9388.4734-2.5198 1.4205-.5811.947-.8717 2.0058-.8717 3.1762v8.7469h-3.962v-23.0481h3.962v8.2041c.4649-.681 1.1094-1.2131 1.9335-1.5962.8241-.383 1.6799-.5745 2.5674-.5745 1.7327 0 3.0956.5532 4.0888 1.66zm7.4565 5.3948c.0212-1.0215.3064-1.8834.8558-2.5857.6339-.8512 1.553-1.2769 2.7575-1.2769 1.0778 0 1.9124.3192 2.5041.9577.655.7235.9931 1.6919 1.0143 2.9049zm3.645-7.0548c-2.1553 0-3.9092.7022-5.2615 2.1069-1.5849 1.6386-2.3772 3.8519-2.3772 6.6399 0 2.7878.8452 5.0011 2.5357 6.6398 1.4158 1.362 3.1484 2.0431 5.1981 2.0431 2.3878 0 4.2368-.7769 5.5468-2.3304.8241-1.0002 1.289-2.0217 1.3947-3.0646h-3.8036c-.1479.5533-.4119 1.0216-.7923 1.4046-.5283.5321-1.3312.7981-2.409.7981-.9085 0-1.7221-.3405-2.4406-1.0216-.8452-.8086-1.2466-1.894-1.2044-3.256h11.0302c0-.2342.0106-.6065.0317-1.1173.0634-2.2984-.412-4.2244-1.4263-5.778-1.3524-2.0431-3.3598-3.0645-6.0223-3.0645z" fill="#1a1f36"/></svg>

<svg width="140" height="47" viewBox="0 0 140 47" fill="none" xmlns="http://www.w3.org/2000/svg">
<path d="M34.7189 17.958C33.9711 18.7111 33.0496 19.1827 32.0843 19.3732C33.4294 23.0195 32.5569 27.1921 29.7954 29.9732C27.8894 31.8928 25.3246 32.9088 22.7279 32.9088C21.559 32.9088 20.3843 32.7 19.2599 32.2775C19.0727 33.2549 18.6035 34.1885 17.8519 34.9455C15.8502 36.9614 12.605 36.9614 10.6033 34.9455C8.60167 32.9296 8.60167 29.6609 10.6033 27.645C11.3505 26.8926 12.2713 26.4212 13.2357 26.2304C11.8645 22.5726 12.7315 18.3751 15.5054 15.5813C18.2769 12.7898 22.44 11.9157 26.0695 13.2916C26.261 12.3265 26.7275 11.4058 27.4702 10.6575C29.4719 8.64165 32.7173 8.64165 34.7189 10.6575C36.7205 12.6735 36.7205 15.9421 34.7189 17.958ZM22.6504 0C10.141 0 0 10.2134 0 22.8123C0 35.4111 10.141 45.6245 22.6504 45.6245C35.1599 45.6245 45.3009 35.4111 45.3009 22.8123C45.3009 10.2134 35.1599 0 22.6504 0ZM25.3266 25.4724C23.8622 26.9474 21.4879 26.9474 20.0234 25.4724C18.5591 23.9976 18.5591 21.6064 20.0234 20.1315C21.4879 18.6567 23.8622 18.6567 25.3266 20.1315C26.791 21.6064 26.791 23.9976 25.3266 25.4724ZM28.6713 11.8672C27.9003 12.6435 27.5469 13.7548 27.7257 14.8398C27.7883 15.1949 27.7505 15.5602 27.5937 15.9012C27.3914 16.3411 27.0314 16.6568 26.6128 16.812C26.1932 16.9675 25.7148 16.9616 25.2775 16.7575C22.8221 15.6124 19.8867 16.1387 17.9728 18.0664C16.0591 19.9937 15.5367 22.9497 16.6729 25.4222C16.8783 25.8692 16.8806 26.358 16.7196 26.7846C16.5631 27.1986 16.2531 27.5541 15.8225 27.7549C15.5854 27.8654 15.336 27.9179 15.0906 27.9179C14.9741 27.9179 14.8594 27.902 14.7463 27.879C13.6257 27.7245 12.5779 28.0751 11.8178 28.841C11.1784 29.4848 10.8263 30.341 10.8263 31.2518C10.8263 32.1623 11.1784 33.0183 11.8178 33.6625C13.1377 34.9913 15.2852 34.9913 16.6049 33.6625C17.3757 32.8857 17.7292 31.7746 17.5502 30.6901C17.5405 30.6305 17.5427 30.5727 17.5502 30.516C17.5298 30.229 17.5785 29.9329 17.7071 29.6533C17.9085 29.215 18.2668 28.9001 18.6835 28.7444C19.1041 28.5872 19.5843 28.5921 20.0234 28.7969C22.4789 29.9424 25.4141 29.4154 27.3281 27.4882C29.2418 25.5607 29.7642 22.6046 28.6278 20.1323C28.4272 19.696 28.4201 19.2195 28.5698 18.8001C28.7223 18.3731 29.0372 18.0052 29.4784 17.7995C29.7881 17.6549 30.1183 17.6116 30.4338 17.6529C30.4827 17.6471 30.5323 17.6453 30.5833 17.6526C31.6506 17.8057 32.6979 17.4545 33.4582 16.6884C34.778 15.3592 34.778 13.1964 33.4582 11.8672C32.1385 10.5378 29.991 10.5378 28.6713 11.8672ZM89.1022 29.741C89.2289 29.7304 89.3241 29.725 89.3874 29.725V33.077C88.6478 33.2259 88.0668 33.3004 87.644 33.3004C86.2282 33.3004 85.1242 32.9386 84.3319 32.215C83.5394 31.4915 83.1433 30.3635 83.1433 28.8312V10.0289H87.1369V28.1608C87.1369 28.6929 87.2426 29.0919 87.4539 29.3579C87.6652 29.624 88.0878 29.7569 88.7217 29.7569C88.8485 29.7569 88.9754 29.7517 89.1022 29.741ZM91.2971 33.1089H95.3226V16.5092H91.2971V33.1089ZM108.516 16.5092H112.478V33.1089H109.182L108.896 30.9381C108.495 31.7469 107.871 32.38 107.026 32.8376C106.181 33.295 105.23 33.5239 104.174 33.5239C102.42 33.5239 101.03 32.9812 100.006 31.8959C98.9808 30.8104 98.4683 29.3739 98.4683 27.5863V16.5092H102.43V26.6925C102.43 28.7993 103.381 29.8528 105.283 29.8528C106.086 29.8528 106.762 29.5761 107.312 29.0228C108.115 28.2779 108.516 27.033 108.516 25.2879V16.5092ZM139.206 21.9041V33.1089H135.275V22.7979C135.275 21.7125 135.091 20.9038 134.721 20.3717C134.351 19.8397 133.691 19.5737 132.74 19.5737C131.704 19.5737 130.907 20.026 130.347 20.9305C129.787 21.8348 129.507 22.8724 129.507 24.0428V33.1089H125.577V22.7979C125.577 21.7125 125.392 20.9038 125.022 20.3717C124.652 19.8397 123.992 19.5737 123.041 19.5737C122.005 19.5737 121.202 20.026 120.632 20.9305C120.061 21.8348 119.776 22.8724 119.776 24.0428V33.1089H115.846V16.5092H119.142L119.459 18.7118C120.516 16.9667 122.079 16.0942 124.15 16.0942C126.411 16.0942 127.985 16.9986 128.873 18.8075C129.908 16.9986 131.567 16.0942 133.849 16.0942C135.561 16.0942 136.881 16.6208 137.811 17.6743C138.741 18.7278 139.206 20.1377 139.206 21.9041ZM91.1703 14.2107H95.4176V10.0927H91.1703V14.2107ZM62.5566 17.7542C63.5497 18.8607 64.0463 20.2866 64.0463 22.0317V33.1089H60.0842V22.8617C60.0842 21.8402 59.8782 21.0687 59.4662 20.5474C59.0541 20.026 58.3516 19.7653 57.3584 19.7653C56.2595 19.7653 55.4196 20.2387 54.8386 21.1858C54.2575 22.1328 53.9669 23.1916 53.9669 24.362V33.1089H50.0049V10.0608H53.9669V18.2649C54.4318 17.5839 55.0763 17.0518 55.9004 16.6687C56.7245 16.2857 57.5803 16.0942 58.4678 16.0942C60.2005 16.0942 61.5634 16.6474 62.5566 17.7542ZM70.0131 23.149C70.0343 22.1275 70.3195 21.2656 70.8689 20.5633C71.5028 19.7121 72.4219 19.2864 73.6264 19.2864C74.7042 19.2864 75.5388 19.6056 76.1305 20.2441C76.7855 20.9676 77.1236 21.936 77.1448 23.149H70.0131ZM73.6581 16.0942C71.5028 16.0942 69.7489 16.7964 68.3966 18.2011C66.8117 19.8397 66.0194 22.053 66.0194 24.841C66.0194 27.6288 66.8646 29.8421 68.5551 31.4808C69.9709 32.8428 71.7035 33.5239 73.7532 33.5239C76.141 33.5239 77.99 32.747 79.3 31.1935C80.1241 30.1933 80.589 29.1718 80.6947 28.1289H76.8911C76.7432 28.6822 76.4792 29.1505 76.0988 29.5335C75.5705 30.0656 74.7676 30.3316 73.6898 30.3316C72.7813 30.3316 71.9677 29.9911 71.2492 29.31C70.404 28.5014 70.0026 27.416 70.0448 26.054H81.075C81.075 25.8198 81.0856 25.4475 81.1067 24.9367C81.1701 22.6383 80.6947 20.7123 79.6804 19.1587C78.328 17.1156 76.3206 16.0942 73.6581 16.0942Z" fill="#1A1F36"/>
</svg>
